public/icons/courses/archive.svg

<svg width="31" height="32" viewBox="0 0 31 32" fill="none" xmlns="http://www.w3.org/2000/svg">
<g id="Component 1">
<path id="Vector" d="M30.25 6H27V27.7143C27 28.3205 27.2107 28.9019 27.5858 29.3305C27.9609 29.7592 28.4696 30 29 30C29.5304 30 30.0391 29.7592 30.4142 29.3305C30.7893 28.9019 31 28.3205 31 27.7143V6.85714C31 6.62981 30.921 6.4118 30.7803 6.25105C30.6397 6.09031 30.4489 6 30.25 6Z" fill="black"/>
<path id="Vector_2" d="M27.9381 31.8392C26.9908 31.574 26.1549 30.9989 25.5587 30.2021C24.9626 29.4054 24.6391 28.431 24.6379 27.4285V0.857141C24.6379 0.629813 24.5494 0.411796 24.3919 0.251051C24.2344 0.0903056 24.0208 0 23.798 0H0.839929C0.617166 0 0.403527 0.0903056 0.246009 0.251051C0.0884922 0.411796 0 0.629813 0 0.857141V27.9999C0 29.0608 0.412964 30.0782 1.14804 30.8284C1.88312 31.5785 2.88011 31.9999 3.91967 31.9999H27.9171C27.937 32.0007 27.9564 31.9939 27.9716 31.9809C27.9868 31.9678 27.9967 31.9494 27.9993 31.9293C28.0019 31.9092 27.9971 31.8889 27.9858 31.8722C27.9745 31.8555 27.9575 31.8438 27.9381 31.8392ZM4.47962 12.5714V5.71427H11.1991V12.5714H4.47962ZM20.1583 26.2857H4.47962V24H20.1583V26.2857ZM20.1583 21.7142H4.47962V19.4285H20.1583V21.7142ZM20.1583 17.1428H4.47962V14.8571H20.1583V17.1428ZM20.1583 12.5714H13.4389V10.2857H20.1583V12.5714ZM20.1583 7.99998H13.4389V5.71427H20.1583V7.99998Z" fill="black"/>
</g>
</svg>

<svg xmlns="http://www.w3.org/2000/svg" fill="none" viewBox="0 0 31 32"><g fill="#000"><path d="M30.25 6H27v21.71c0 .61.21 1.2.59 1.62.37.43.88.67 1.41.67.53 0 1.04-.24 1.41-.67.38-.43.59-1 .59-1.62V6.86a.92.92 0 0 0-.22-.6.7.7 0 0 0-.53-.26Z"/><path d="M27.94 31.84a4.48 4.48 0 0 1-2.38-1.64c-.6-.8-.92-1.77-.92-2.77V.86a.87.87 0 0 0-.25-.6.83.83 0 0 0-.6-.26H.85a.83.83 0 0 0-.6.25.87.87 0 0 0-.24.6V28c0 1.06.41 2.08 1.15 2.83A3.88 3.88 0 0 0 3.92 32h24c.02 0 .04 0 .05-.02a.08.08 0 0 0 .02-.1.08.08 0 0 0-.05-.04ZM4.48 12.57V5.71h6.72v6.86H4.48ZM20.16 26.3H4.48V24h15.68v2.29Zm0-4.58H4.48v-2.28h15.68v2.28Zm0-4.57H4.48v-2.28h15.68v2.28Zm0-4.57h-6.72V10.3h6.72v2.28Zm0-4.57h-6.72V5.71h6.72V8Z"/></g></svg>
